src/lib/packages/icons/src/assets/filled/credit-card-change.svg

<svg width="24" height="24" viewBox="0 0 24 24" fill="none" xmlns="http://www.w3.org/2000/svg">
<path d="M3.00097 11.855C2.97397 11.855 2.94602 11.854 2.91802 11.851C2.50602 11.806 2.20902 11.435 2.25402 11.024C2.61702 7.70705 4.619 4.84996 7.609 3.38196C7.842 3.26796 8.11699 3.28195 8.33599 3.41895C8.55599 3.55595 8.68999 3.79703 8.68999 4.05603V7.10596C8.68999 7.51996 8.35399 7.85596 7.93999 7.85596C7.52599 7.85596 7.18999 7.51996 7.18999 7.10596V5.36499C5.26699 6.70299 4.00596 8.80401 3.74596 11.187C3.70396 11.571 3.37797 11.855 3.00097 11.855ZM16.391 20.729C19.382 19.261 21.384 16.404 21.746 13.087C21.791 12.675 21.494 12.305 21.082 12.26C20.669 12.216 20.3 12.512 20.255 12.924C19.995 15.3069 18.734 17.4079 16.811 18.7469V17.006C16.811 16.592 16.475 16.256 16.061 16.256C15.647 16.256 15.311 16.592 15.311 17.006V20.056C15.311 20.315 15.445 20.556 15.665 20.693C15.786 20.768 15.923 20.806 16.061 20.806C16.173 20.806 16.286 20.78 16.391 20.729ZM11.5 14H5.49999C4.49999 14 3.99999 14.5 3.99999 15.5V15.75H13V15.5C13 14.5 12.5 14 11.5 14ZM3.99999 17.25V19.5C3.99999 20.5 4.49999 21 5.49999 21H11.5C12.5 21 13 20.5 13 19.5V17.25H3.99999ZM7.49999 19.5H5.99999C5.71999 19.5 5.49999 19.28 5.49999 19C5.49999 18.72 5.71999 18.5 5.99999 18.5H7.49999C7.77999 18.5 7.99999 18.72 7.99999 19C7.99999 19.28 7.77999 19.5 7.49999 19.5ZM18.5 3H12.5C11.5 3 11 3.5 11 4.5V4.75H20V4.5C20 3.5 19.5 3 18.5 3ZM11 6.25V8.5C11 9.5 11.5 10 12.5 10H18.5C19.5 10 20 9.5 20 8.5V6.25H11ZM14.5 8.5H13C12.72 8.5 12.5 8.28 12.5 8C12.5 7.72 12.72 7.5 13 7.5H14.5C14.78 7.5 15 7.72 15 8C15 8.28 14.78 8.5 14.5 8.5Z" fill="currentColor"/>
</svg>

<svg xmlns="http://www.w3.org/2000/svg" width="24" height="24" fill="none"><path fill="currentColor" d="M3.001 11.855a.75.75 0 0 1-.747-.831 9.638 9.638 0 0 1 5.355-7.642.75.75 0 0 1 1.081.674v3.05a.75.75 0 0 1-1.5 0V5.365a8.136 8.136 0 0 0-3.444 5.822.75.75 0 0 1-.745.668Zm13.39 8.874a9.633 9.633 0 0 0 5.355-7.642.75.75 0 1 0-1.491-.163 8.14 8.14 0 0 1-3.444 5.823v-1.741a.75.75 0 0 0-1.5 0v3.05a.75.75 0 0 0 1.08.673ZM11.5 14h-6c-1 0-1.5.5-1.5 1.5v.25h9v-.25c0-1-.5-1.5-1.5-1.5ZM4 17.25v2.25c0 1 .5 1.5 1.5 1.5h6c1 0 1.5-.5 1.5-1.5v-2.25H4Zm3.5 2.25H6c-.28 0-.5-.22-.5-.5s.22-.5.5-.5h1.5c.28 0 .5.22.5.5s-.22.5-.5.5ZM18.5 3h-6c-1 0-1.5.5-1.5 1.5v.25h9V4.5c0-1-.5-1.5-1.5-1.5ZM11 6.25V8.5c0 1 .5 1.5 1.5 1.5h6c1 0 1.5-.5 1.5-1.5V6.25h-9Zm3.5 2.25H13c-.28 0-.5-.22-.5-.5s.22-.5.5-.5h1.5c.28 0 .5.22.5.5s-.22.5-.5.5Z"/></svg>
